!!!COM: Music21
!!!OTL: slide_Seans
!!!OMV: slide_Seans
**kern
*clefG2
*k[]
*M12/8
=1
4.a
8ddL
8a
8fJ
=
4g
8e
8eL
8f
8gJ
2.ryy
=
8fL
8e
8fJ
8dL
8e
8fJ
8eL
8d
8eJ
8eL
8f
8gJ
=
4.a
8ddL
8a
8fJ
8g
8r
8e
8eL
8f
8gJ
!!linebreak:original
=
8fL
8e
8dJ
8eL
8f
8eJ
4.d
8eL
8f
8gJ
=||
*M12/8
4.a
8ddL
8a
8fJ
=
4g
8e
8eL
8f
8gJ
2.ryy
=
8fL
8e
8fJ
8dL
8e
8fJ
8eL
8d
8eJ
8eL
8f
8gJ
!!linebreak:original
=
4.a
8ddL
8a
8fJ
8g
8r
8e
8eL
8f
8gJ
=
8fL
8e
8dJ
8eL
8f
8eJ
4.d
8eL
8f
8gJ
=||
8eL
8d
8eJ
4c
8e
8fL
8e
8fJ
4f
8a
=
8bL
8a
8bJ
8gL
8a
8bJ
8cc#XL
8b
8ccnJ
8aL
8b
8ccJ
!!linebreak:original
=
4.dd
8ddL
8a
8fJ
4g
8e
8eL
8f
8gJ
=
8fL
8e
8dJ
8eL
8f
8eJ
4.d
4.d
=||
8eL
8d
8eJ
4c
8e
8fL
8e
8fJ
4f
8a
=
8bL
8a
8bJ
8gL
8a
8bJ
8cc#XL
8b
8ccnJ
8aL
8b
8ccJ
!!linebreak:original
=
4.dd
8ddL
8a
8fJ
4g
8e
8eL
8f
8gJ
=
8fL
8e
8dJ
8eL
8f
8eJ
4.d
4.d
=||
4aa
8a
4gg
8a
8ffL
8ee
8ddJ
4.ee
=
8ffL
8ee
8ddJ
8ddL
8ee
8ffJ
8eeL
8ff
8eeJ
8eeL
8ff
8ggJ
!!linebreak:original
=
8aaL
8a
8aJ
8ggL
8a
8aJ
8ffL
8a
8aJ
8eeL
8a
8aJ
=
8ffL
8ee
8ddJ
8eeL
8ff
8eeJ
4.dd
4.dd
=||
4aa
8a
4gg
8a
8ffL
8ee
8ddJ
4.ee
=
8ffL
8ee
8ddJ
8ddL
8ee
8ffJ
8eeL
8ff
8eeJ
8eeL
8ff
8ggJ
!!linebreak:original
=
8aaL
8a
8aJ
8ggL
8a
8aJ
8ffL
8a
8aJ
8eeL
8a
8aJ
=
8ffL
8ee
8ddJ
8eeL
8ff
8eeJ
4.dd
4.dd
=||
*-
